X:1
T:Kiss me, Joe -- Reel
R:reel
B:Ryan's Mammoth Collection
Z:Contributed by Ray Davies, ray:davies99.freeserve.co.uk
M:2/4
L:1/16
K:G
vdc|BGcG BGAF|{A}GFGA Bdef|{a}gfge dBAc|BGAF GDEF|\
G2(BG) AGEF|{A}.G.F.G.A .B.d.e.f|{a}.g.f.g.e .d.B.G.B|ADEF G2:|\
|:uBc|.d.B.G.B .e.c.A.c|.f.c.A.f .g.d.B.b|.c'.e.e.c' .b.d.d.b|.a.g.f.e =
.d.c.B.c|\
.d.B.G.B .e.c.A.c|.f.c.A.f .g.d.B.b|c'eec' bddb|adef g2H:|
